X:5919
T:Gan Ainm
R:polka
S:Unknown Accordion 
H:
N:
D:Live Broadcast (Clare FM)
Z:Adrian Scahill
M:2/4
L:1/16
K:D
D2FA B2A2|d3e d2c2|B2A2 Bcd2|B2A2 F2A2|\
D2FA B2A2|d3e d2c2|B2A2 Bcd2|e2d2 d4:||\
f2af e2f2|d2ed c2d2|B2A2 Bcd2|B2A2 F2A2|\
1 f2af e2f2|d2ed c2d2|B2A2 Bcd2|e2d2 d2e2:|2 D2FA B2A2|d3e d2c2|B2A2 Bcd2|e2d2 d4||\
